X: 121009
T: AMERICAN AIR
P: Same figure.
%R: march, reel
B: James Kerr "Merry Melodies" v.1 p.21 s.0 #9
Z: 2017 John Chambers <jc:trillian.mit.edu>
M: 2/4
L: 1/16
K: D
uA2 |\
vd3uA B2A2 | F2A2A2z2 |\
vd3uA B2A2 | F2D2D2 A2 |\
d3A B2A2 | F2A2A2z2 |\
d3A B2A2 | F2D2D2 |]\
uA2 |\
defd e3d | B2d2d2z2 |\
vdefd e3d | B2A2A2 A2 |
defd e3d | B2d2d2 (3(ABc) |\
d3A B3A | F2D2D2 |]\
(de) |\
f2f2e2d2 | B2d2 d2(de) |\
f2fa (gf)ed | f2a2 a2(de) |\
f2f2e2d2 | B2d2d2 (3(ABc) |\
d3A B3A | F2D2D2 |]

%%sep 1 1 500
%%sep 1 1 500

